X:1
T:[ID 1-109a]
T:[ID 1-109a]
T:Bezeichnung standardisiert: Tanz mit mir; Courant In dieser Quelle auch als: Allegro In dieser Quelle auch als: Boure In dieser Quelle auch als: Boure Dantz mit mir In dieser Quelle auch als: Tantz mit mir
T:Urheber unbekannt Erstbeleg: 1773 (Datum in der schriftlichen Quelle) Datum in der hier transkribierten schriftlichen Quelle: 1792
C:Urheber unbekannt
C:Erstbeleg: 1773 (Datum in der schriftlichen Quelle)
C:Datum in der hier transkribierten schriftlichen Quelle: 1792
%%score ( 1 2 )
L:1/8
M:4/4
K:D
V:1 treble 
V:2 treble 
V:1
 d2 f2 f4 | e2 g2 g4 | f2 ed c2 d2 | edcB ABcA | d2 f2 f4 | e2 g2 g4 | fafd egec | d4 D4 :: %8
 f2 a2 a2 f2 |"^1)" g2 a2 b4 | e2 g2 g2 eg |"^1)" f2 g2 a4 | d2 f2 f4 | e2 g2 g4 | fafd egec | %15
 d4 D4 :| %16
V:2
 x8 | x8 | x8 | x8 | x8 | x8 | x8 | x8 :: x8 | b2 a2 g4 | x8 | a2 f2 f4 | x8 | x8 | x8 | x8 :| %16

